apps/voting/app/public/meta/icon.svg

<svg width="24" height="24" viewBox="0 0 24 24" fill="none" xmlns="http://www.w3.org/2000/svg">
<rect width="24" height="24" fill="url(#paint0_linear)"/>
<path d="M9.85713 16.102C9.85713 16.5903 10.2589 16.9898 10.75 16.9898L15.3795 16.9898L14.7857 19.8084C14.7723 19.875 14.7634 19.946 14.7634 20.017C14.7634 20.2922 14.875 20.5408 15.058 20.7228L15.7679 21.4286L20.1785 17.0431C20.4196 16.8034 20.5714 16.4705 20.5714 16.102L20.5714 10.3316C20.5714 9.59478 19.9732 9 19.2321 9L13.2053 9C12.6518 9 12.1741 9.33291 11.9732 9.8123L9.95088 14.5085C9.89283 14.6594 9.85713 14.8192 9.85713 14.9923L9.85713 16.102Z" fill="white" fill-opacity="0.6"/>
<path d="M14.1428 7.89797C14.1428 7.40972 13.7411 7.01023 13.25 7.01023H8.62051L9.21427 4.19162C9.22767 4.12504 9.23658 4.054 9.23658 3.98301C9.23658 3.70782 9.12496 3.45922 8.94194 3.27725L8.23212 2.57144L3.82143 6.95696C3.58036 7.19665 3.42856 7.52956 3.42856 7.89797V13.6684C3.42856 14.4052 4.02676 15 4.76784 15H10.7946C11.3482 15 11.8259 14.6671 12.0268 14.1877L14.0491 9.49151C14.1071 9.34058 14.1428 9.18079 14.1428 9.00767V7.89797Z" fill="white"/>
<defs>
<linearGradient id="paint0_linear" x1="-4.98362e-07" y1="-4.00208" x2="20.1429" y2="24" gradientUnits="userSpaceOnUse">
<stop stop-color="#A8ED2F"/>
<stop offset="1" stop-color="#68DFB1"/>
</linearGradient>
</defs>
</svg>

<svg width="24" height="24" fill="none" xmlns="http://www.w3.org/2000/svg"><path fill="url(#paint0_linear)" d="M0 0h24v24H0z"/><path d="M9.857 16.102c0 .488.402.888.893.888h4.63l-.594 2.818a.99.99 0 0 0 .272.914l.71.707 4.41-4.386c.242-.24.393-.572.393-.941v-5.77c0-.737-.598-1.332-1.339-1.332h-6.027c-.553 0-1.03.333-1.232.812L9.951 14.51c-.058.15-.094.31-.094.483v1.11z" fill="#fff" fill-opacity=".6"/><path d="M14.143 7.898a.893.893 0 0 0-.893-.888H8.62l.594-2.818a.99.99 0 0 0-.272-.914l-.71-.707-4.41 4.386c-.242.24-.393.573-.393.941v5.77c0 .737.598 1.332 1.339 1.332h6.027c.553 0 1.03-.333 1.232-.812l2.022-4.696c.058-.151.094-.311.094-.484v-1.11z" fill="#fff"/><defs><linearGradient id="paint0_linear" x1="0" y1="-4.002" x2="20.143" y2="24" gradientUnits="userSpaceOnUse"><stop stop-color="#A8ED2F"/><stop offset="1" stop-color="#68DFB1"/></linearGradient></defs></svg>
